X:2224
T:Herring fleet 
C:Mary Gawne, Peel 
C:Traditional
O:Isle of Man
Z:Clague collection
B:Kiaull Vannin #224 
N:See also KV 244,259,274,284,391,392.
M:3/4 
L:1/4 
Q:120 
K:D 
F/G/|AA B|c2 B/A/|Bc B|A2 F/G/|AB c|dc B|A2 A/B/|
AA G|F2 E/D/|ED D/E/|F2 G|AB A|GF D|E D|| 

